X: 64
T:Here\'is a Health to All Honest Men
M:6/8
L:1/8
K:Am
A/B/|"Am"cBA Aa^g|a3-agf|edc BcA|"E"e3-eAB|
"Am"cBA Aa^g|a3-agf|edc BcA|"E"e3-e2:|
e|"C"ecc c2e|"G"gGG G2B|"Am"cBA ABc|"E"e2E E2 c/B/|
"Am"ABc "D"^Fdc|"Bm"Bcd "E"^Ga^g|"Am"aed "E"c2B/A/|"Am"A3-A2:|
